icons/action-add-assignment.svg

<svg
  xmlns="http://www.w3.org/2000/svg"
  viewBox="0 0 500 500"
  width="500"
  height="500"
  fill="#ffffff"
>
  <path d="M201.5 395.4a17.9 17.9 0 0 1-12.6-5.1L10.5 218.2A18.1 18.1 0 0 1 23.1 187h97.6V44.4a18.1 18.1 0 0 1 18.1-18.2h125.4a18.1 18.1 0 0 1 18.1 18.2V187h97.5a18.1 18.1 0 0 1 12.6 31.2L214.1 390.3a18.1 18.1 0 0 1-12.6 5.1zM68.1 223.3l133.4 128.8 133.4-128.8h-70.7a18.1 18.1 0 0 1-18.2-18.2V62.5h-89v142.6a18.2 18.2 0 0 1-18.2 18.2z" />
  <polygon points="495 359.1 416.6 359.1 416.6 280.8 380.3 280.8 380.3 359.1 302 359.1 302 395.4 380.3 395.4 380.3 473.8 416.6 473.8 416.6 395.4 495 395.4 495 359.1" />
</svg>

<svg xmlns="http://www.w3.org/2000/svg" viewBox="0 0 500 500">
  <g id="add-assignment-action">
    <path id="arrow" d="M201.5,395.4a17.9,17.9,0,0,1-12.6-5.1L10.5,218.2A18.1,18.1,0,0,1,23.1,187h97.6V44.4a18.1,18.1,0,0,1,18.1-18.2H264.2a18.1,18.1,0,0,1,18.1,18.2V187h97.5a18.1,18.1,0,0,1,12.6,31.2L214.1,390.3A18.1,18.1,0,0,1,201.5,395.4ZM68.1,223.3,201.5,352.1,334.9,223.3H264.2A18.1,18.1,0,0,1,246,205.1V62.5H157V205.1a18.2,18.2,0,0,1-18.2,18.2Z"/>
    <polygon id="plus" points="495 359.1 416.6 359.1 416.6 280.8 380.3 280.8 380.3 359.1 302 359.1 302 395.4 380.3 395.4 380.3 473.8 416.6 473.8 416.6 395.4 495 395.4 495 359.1"/>
  </g>
</svg>
